packages/kaspersky-hexa-ui-icons/src/iconsSVGs/24/TagAdd.svg

<svg width="24" height="24" viewBox="0 0 24 24" fill="none" xmlns="http://www.w3.org/2000/svg">
<path d="M12.0973 18.7628L10.9999 19.863L3.99907 13.0599L13.2182 3.99805L19.9979 3.99807L19.999 3.9991L20 4.00023L20.0001 10.8401L18.7474 12.096C19.4361 12.2725 20.0293 12.6875 20.4338 13.2477L21.4214 12.2487C21.7921 11.8736 22.0001 11.3675 22.0001 10.8401V4.00163C22.0001 2.89508 21.103 1.99805 19.9965 1.99805H13.2182C12.6928 1.99805 12.1884 2.20444 11.8137 2.57276L2.63534 11.5946C1.85178 12.3648 1.78035 13.6318 2.55377 14.4419C4.06757 16.0277 5.63269 17.569 7.19685 19.1094C7.96185 19.8628 8.72662 20.616 9.48504 21.374C10.2936 22.1821 11.5988 22.1852 12.4007 21.374L13.2941 20.4702C12.7131 20.0678 12.281 19.4655 12.0973 18.7628Z" fill="black"/>
<path d="M18.9639 14.7347C18.8469 14.3123 18.4597 14.0021 18.0001 14.0021C17.4478 14.0021 17.0001 14.4499 17.0001 15.0021V17.0021H15.0001C14.4478 17.0021 14.0001 17.4499 14.0001 18.0021C14.0001 18.4757 14.3293 18.8724 14.7713 18.9759C14.8448 18.993 14.9214 19.0021 15.0001 19.0021H17.0001V21.0021C17.0001 21.5544 17.4478 22.0021 18.0001 22.0021C18.5523 22.0021 19.0001 21.5544 19.0001 21.0021V19.0021H21.0001C21.5523 19.0021 22.0001 18.5544 22.0001 18.0021C22.0001 17.4499 21.5523 17.0021 21.0001 17.0021H19.0001V15.0021C19.0001 14.9095 18.9875 14.8198 18.9639 14.7347Z" fill="black"/>
<path d="M16.5001 9.00006C17.3285 9.00006 18.0001 8.32849 18.0001 7.50006C18.0001 6.67163 17.3285 6.00006 16.5001 6.00006C15.6716 6.00006 15.0001 6.67163 15.0001 7.50006C15.0001 8.32849 15.6716 9.00006 16.5001 9.00006Z" fill="black"/>
</svg>

<svg xmlns="http://www.w3.org/2000/svg" width="24" height="24" fill="none" viewBox="0 0 24 24"><path fill="#000" fill-rule="evenodd" d="m10.9998 19.863 1.0975-1.1002c.1836.7027.6157 1.305 1.1968 1.7074l-.8934.9038c-.8019.8112-2.1072.8081-2.9157 0-.7584-.758-1.5232-1.5112-2.2882-2.2646-1.5642-1.5404-3.1293-3.0817-4.6431-4.6675-.7734-.8102-.702-2.0771.0816-2.8473l9.1783-9.0218a2.004 2.004 0 0 1 1.4045-.5747h6.7783C21.103 1.998 22 2.895 22 4.0016v6.8385a2.004 2.004 0 0 1-.5787 1.4086l-.9875.999c-.4046-.5602-.9978-.9752-1.6865-1.1517L20 10.8401V4.0002l-.001-.001-.0012-.0011h-6.7797l-9.219 9.0618zM16.5 9c.8284 0 1.5-.6715 1.5-1.5S17.3284 6 16.5 6 15 6.6717 15 7.5 15.6716 9 16.5 9m2.4638 5.7347c-.1169-.4225-.5042-.7326-.9638-.7326-.5523 0-1 .4477-1 1v2h-2c-.5523 0-1 .4477-1 1 0 .4736.3292.8703.7713.9738.0734.0171.15.0262.2287.0262h2v2c0 .5523.4477 1 1 1s1-.4477 1-1v-2h2c.5523 0 1-.4477 1-1s-.4477-1-1-1h-2v-2a1 1 0 0 0-.0362-.2674"/></svg>
